assets/icon/stats/elo.svg

<?xml version="1.0" encoding="UTF-8" standalone="no"?>
<!DOCTYPE svg PUBLIC "-//W3C//DTD SVG 1.1//EN" "http://www.w3.org/Graphics/SVG/1.1/DTD/svg11.dtd">
<svg width="100%" height="100%" viewBox="0 0 512 512" version="1.1" xmlns="http://www.w3.org/2000/svg" xmlns:xlink="http://www.w3.org/1999/xlink" xml:space="preserve" xmlns:serif="http://www.serif.com/" style="fill-rule:evenodd;clip-rule:evenodd;stroke-linejoin:round;stroke-miterlimit:2;">
    <g>
        <path d="M496,448L456,448L456,192C456,187.611 452.389,184 448,184L328,184L328,24C328,19.611 324.389,16 320,16L192,16C187.611,16 184,19.611 184,24L184,120L64,120C59.611,120 56,123.611 56,128L56,448L16,448C11.611,448 8,451.611 8,456L8,488C8,492.389 11.611,496 16,496L496,496C500.389,496 504,492.389 504,488L504,456C504,451.611 500.389,448 496,448ZM328,200L440,200L440,448L328,448L328,200ZM200,32L312,32L312,448L200,448L200,32ZM72,136L184,136L184,448L72,448L72,136ZM488,480L24,480L24,464L488,464L488,480Z" style="fill:white;fill-rule:nonzero;"/>
        <path d="M248,64L248,120C248,124.389 251.611,128 256,128C260.389,128 264,124.389 264,120L264,56C264,51.611 260.389,48 256,48L248,48C243.611,48 240,51.611 240,56C240,60.389 243.611,64 248,64Z" style="fill:white;fill-rule:nonzero;"/>
        <path d="M368,280C363.611,280 360,283.611 360,288C360,292.389 363.611,296 368,296L400,296C404.389,296 408,292.389 408,288L408,224C408,219.611 404.389,216 400,216L368,216C363.611,216 360,219.611 360,224C360,228.389 363.611,232 368,232L392,232L392,248L376,248C371.611,248 368,251.611 368,256C368,260.389 371.611,264 376,264L392,264L392,280L368,280Z" style="fill:white;fill-rule:nonzero;"/>
        <path d="M144,152L112,152C107.611,152 104,155.611 104,160C104,164.389 107.611,168 112,168L136,168L136,172.687L106.343,202.343C104.843,203.843 104,205.879 104,208L104,224C104,228.389 107.611,232 112,232L144,232C148.389,232 152,228.389 152,224C152,219.611 148.389,216 144,216L120,216L120,211.313L149.657,181.657C151.157,180.157 152,178.121 152,176L152,160C152,155.611 148.389,152 144,152Z" style="fill:white;fill-rule:nonzero;"/>
    </g>
</svg>

<?xml version="1.0"?>
<svg xmlns="http://www.w3.org/2000/svg" width="512" height="512" viewBox="0 0 512 512"><g><path d="M496,448H456V192a8,8,0,0,0-8-8H328V24a8,8,0,0,0-8-8H192a8,8,0,0,0-8,8v96H64a8,8,0,0,0-8,8V448H16a8,8,0,0,0-8,8v32a8,8,0,0,0,8,8H496a8,8,0,0,0,8-8V456A8,8,0,0,0,496,448ZM328,200H440V448H328ZM200,32H312V448H200ZM72,136H184V448H72ZM488,480H24V464H488Z"/><path d="M248,64v56a8,8,0,0,0,16,0V56a8,8,0,0,0-8-8h-8a8,8,0,0,0,0,16Z"/><path d="M368,280a8,8,0,0,0,0,16h32a8,8,0,0,0,8-8V224a8,8,0,0,0-8-8H368a8,8,0,0,0,0,16h24v16H376a8,8,0,0,0,0,16h16v16Z"/><path d="M144,152H112a8,8,0,0,0,0,16h24v4.687l-29.657,29.656A8,8,0,0,0,104,208v16a8,8,0,0,0,8,8h32a8,8,0,0,0,0-16H120v-4.687l29.657-29.656A8,8,0,0,0,152,176V160A8,8,0,0,0,144,152Z"/></g></svg>
